X:69
T: Et gong emol eng Ges, S. 36
N: L0029
O: Luxemburg
S: Die Luxemburger Volkslieder lterer Zeit, Luxemburg 1904 posth.]
N: Taktwechsel, 1. Teil - langsam, 2. Teil - schnell
R: ??]
M: 3/4
L: 1/16
K: A
E4 | A2A2A4A4 | A8
c2c2 | c4B4A4 | B8
B4 | d8B4 | c8
A4 | B4A4G4 | A8z4 |
A3Bc2A2 | B4B4
B3cd2B2 | c4c4
g3GG2G2 | A2A2A4
G3GG2G2 | A2A2A4

@@@ Tune index: 8123
